X: 130197
T: Music at McGurk's (reel)
N: 088
N: revised 1/2/07
C: BB
R: reel
Q: 1/8=350
M: 4/4
L: 1/8
K: G
"Em"E2 GA BAGA|"G"Bd^cd "C"egfg|"Em"eBBc "G"dBGB|"Am"AGAB "D"AGFD|
"Em"E2 GA BAGA|"G"Bd^cd "Am"efga|"G"bg"D"af "G"gfed|"Bm7"BdAF "Em"E4 :|
"G"G2 DG BAGF|"Em"EB,DB, "Am"A,CEF|"G"G2 BG "Bm"Bd (3d^cd|"C"ec"G"dB "D7"cBAF|
"G"G2 DG BAGF|"Em"EB,DB, "Am"A,CEF|"G"GB"D"AF "G"GBdg|"C"ec"D"AF "G"G4 :|
